!!!COM:	la Rue, Pierre de
!!!CDT:	~1452///-1518/11/20
!!!OPR:	Missa O salutaris hostia
!!!ONM:	2
!!!OTL:	Gloria
!!!AGN:	Mass; Gloria
!!!SCT:	Rue1022b
!!!SCA:	Rue1022b
!!!voices-OPR:	4
!!!voices:	4
**kern	**kern	**kern	**kern
*Ivox	*Ivox	*Ivox	*Ivox
*I"Bassus	*I"Tenor	*I"Contra	*I"Discantus
*I'B	*I'T	*I'C	*I'D
*staff4	*staff3	*staff2	*staff1
*>[A,B]	*>[A,B]	*>[A,B]	*>[A,B]
*>A	*>A	*>A	*>A
*clefF4	*clefGv2	*clefGv2	*clefG2
*k[b-]	*k[b-]	*k[b-]	*k[b-]
*M2/1	*M2/1	*M2/1	*M2/1
*met(C2)	*met(C2)	*met(C2)	*met(C2)
=1-	=1-	=1-	=1-
!!section: Et in terra pax
!!!OMD: Et in terra pax
!	!	!	!LO:TX:X=-40:Z=8:t=4-ex-1 canon at the lower 5th/8ve/12th (2/13/15 breves)
0r	0r	0r	0g
=2.	=2.	=2.	=2.
0r	0r	0r	0g
=3	=3	=3	=3
0r	0r	0c	1c
.	.	.	2.e/
.	.	.	4f/
=4.	=4.	=4.	=4.
0r	0r	0c	2g/
.	.	.	2.a/
.	.	.	4g/
.	.	.	2g/
=5	=5	=5	=5
0r	0r	1F	0a
.	.	2.A/	.
.	.	4B-\	.
=6.	=6.	=6.	=6.
0r	0r	2c\	1r
.	.	2.d\	.
.	.	.	1a
.	.	4c\	.
.	.	2c\	.
=7	=7	=7	=7
0r	0r	0d	2a/
.	.	.	2a/
.	.	.	1b-
=8.	=8.	=8.	=8.
0r	0r	1r	1a
.	.	1d	2a/
.	.	.	[2a/
=9	=9	=9	=9
0r	0r	2d\	2a/]
.	.	2d\	4g/
.	.	.	4f/
.	.	1e-i	1g
=10.	=10.	=10.	=10.
0r	0r	1d	2f/
.	.	.	2f/
.	.	2d\	2f/
.	.	[2d\	2f/
=11	=11	=11	=11
0r	0r	2d\]	1d
.	.	4c\	.
.	.	4B-\	.
.	.	1c	1e
=12.	=12.	=12.	=12.
0r	0r	2B-\	2d/
.	.	2B-\	2b-\
.	.	2B-\	2b-\
.	.	2B-\	2b-\
=13	=13	=13	=13
0r	0r	1G	2b-\
.	.	.	4a/
.	.	.	4g/
.	.	1A	2.f#i/
.	.	.	4g/
=14.	=14.	=14.	=14.
0r	0G	2G/	[0g
.	.	2e-i\	.
.	.	2e-i\	.
.	.	2e-i\	.
=15	=15	=15	=15
0r	0G	2e-i\	0g]
.	.	4d\	.
.	.	4c\	.
.	.	2.Bni\	.
.	.	4c\	.
=16.	=16.	=16.	=16.
0C	1C	[0c	0r
.	2.E/	.	.
.	4F/	.	.
=17	=17	=17	=17
0C	2G/	0c]	0r
.	2.A/	.	.
.	4G/	.	.
.	2G/	.	.
=18.	=18.	=18.	=18.
1FF	0A	0r	0r
2.AA/	.	.	.
4BB-/	.	.	.
=19	=19	=19	=19
2C/	1r	0r	0r
2.D\	.	.	.
.	1A	.	.
4C/	.	.	.
2C/	.	.	.
=20.	=20.	=20.	=20.
0D	2A/	0r	0r
.	2A/	.	.
.	1B-	.	.
=21	=21	=21	=21
1r	1A	0r	0r
1D	2A/	.	.
.	[2A/	.	.
=22.	=22.	=22.	=22.
2D\	2A/]	0r	0r
2D\	4G/	.	.
.	4F/	.	.
1E-i	1G	.	.
=23	=23	=23	=23
1D	2F/	0r	0r
.	2F/	.	.
2D\	2F/	.	.
[2D\	2F/	.	.
=24.	=24.	=24.	=24.
2D\]	1D	0r	0r
4C/	.	.	.
4BB-/	.	.	.
1C	1E	.	.
=25	=25	=25	=25
2BB-/	2D/	0r	1r
2BB-/	2B-\	.	.
2BB-/	2B-\	.	1d
2BB-/	2B-\	.	.
=26.	=26.	=26.	=26.
1GG	2B-\	0r	1d
.	4A/	.	.
.	4G/	.	.
1AA	2.F#i/	.	1a
.	4G/	.	.
=27	=27	=27	=27
2GG/	[0G	1r	1b-
2E-i\	.	.	.
2E-i\	.	1G	2b-\
2E-i\	.	.	[2g/
=28.	=28.	=28.	=28.
2E-i\	0G]	1G	2g/]
4D\	.	.	4f/
4C/	.	.	4e/
2.BBni/	.	1d	1d
4C/	.	.	.
=29	=29	=29	=29
[0C	0r	1e-i	2r
.	.	.	2.cc\
.	.	2e-i\	.
.	.	.	4b-\
.	.	[2c\	[2a/
=30.	=30.	=30.	=30.
0C]	0r	2c\]	2a/]
.	.	4B-\	4g/
.	.	4A/	4f/
.	.	1G	2e/
.	.	.	2e/
=31	=31	=31	=31
0r	0r	2r	0f
.	.	2.f\	.
.	.	4e\	.
.	.	[2d\	.
=32.	=32.	=32.	=32.
0r	0r	2d\]	1r
.	.	4c\	.
.	.	4B-\	.
.	.	2A/	1f
.	.	2A/	.
=33	=33	=33	=33
0r	0r	0B-	1f
.	.	.	1f
=34.	=34.	=34.	=34.
0r	0r	1r	1.g
.	.	1B-	.
.	.	.	2g/
=35	=35	=35	=35
0r	0r	1B-	2f/
.	.	.	2f/
.	.	1B-	1f
=36.	=36.	=36.	=36.
0r	0r	1.c	2e/
.	.	.	2.cc\
.	.	.	4b-\
.	.	2c\	[2a/
=37	=37	=37	=37
0r	0r	2B-\	2a/]
.	.	2B-\	4g/
.	.	.	4f/
.	.	1B-	1g
=38.	=38.	=38.	=38.
0r	1r	2A/	2a/
.	.	2.f\	2.a/
.	1D	.	.
.	.	4e\	4g/
.	.	[2d\	4f/
.	.	.	4e/
=39	=39	=39	=39
0r	1D	2d\]	2d/
.	.	4c\	2d/
.	.	4B-\	.
.	1A	1c	1e
=40.	=40.	=40.	=40.
1r	1B-	2d\	0d
.	.	2.d\	.
1GG	2B-\	.	.
.	.	4c\	.
.	[2G/	4B-\	.
.	.	4A/	.
=41	=41	=41	=41
1GG	2G/]	2G/	0r
.	4F/	2G/	.
.	4E/	.	.
1D	1D	1A	.
=42.	=42.	=42.	=42.
1E	2r	0G	0r
.	2.c\	.	.
2E\	.	.	.
.	4B-\	.	.
[2C/	[2A/	.	.
=43	=43	=43	=43
2C/]	2A/]	0r	1r
4BB-/	4G/	.	.
4AA/	4F/	.	.
1GG	2E/	.	1g
.	2E/	.	.
=44.	=44.	=44.	=44.
2r	0F	0r	1a
2.F\	.	.	.
.	.	.	[1a
4E\	.	.	.
[2D\	.	.	.
=45	=45	=45	=45
2D\]	1r	1r	1a]
4C/	.	.	.
4BB-/	.	.	.
2AA/	1F	1c	1a
2AA/	.	.	.
=46.	=46.	=46.	=46.
0BB-	1F	1d	2f/
.	.	.	2f/
.	1F	[1d	2f/
.	.	.	2f/
=47	=47	=47	=47
1r	1.G	1d]	1d
1BB-	.	1d	1r
.	2G/	.	.
=48.	=48.	=48.	=48.
1BB-	2F/	2B-\	0r
.	2F/	2B-\	.
1BB-	1F	2B-\	.
.	.	2B-\	.
=49	=49	=49	=49
1.C	2E/	1G	0r
.	2.c\	.	.
.	.	1r	.
.	4B-\	.	.
2C/	[2A/	.	.
=50.	=50.	=50.	=50.
2BB-/	2A/]	0r	1r
2BB-/	4G/	.	.
.	4F/	.	.
1BB-	1G	.	1dd
=51	=51	=51	=51
2AA/	2A/	0r	2cc\
2.F\	2.A/	.	2cc\
.	.	.	2.a/
4E\	4G/	.	.
[2D\	4F/	.	.
.	4E/	.	4g/
=52.	=52.	=52.	=52.
2D\]	2D/	1r	2f/
4C/	2D/	.	4e/
4BB-/	.	.	4d/
1C	1E	1g	1c
=53	=53	=53	=53
2D\	0D	2f\	2r
2.D\	.	2f\	2a/
.	.	2.d\	2b-\
4C/	.	.	.
4BB-/	.	.	[2dd\
4AA/	.	4c\	.
=54.	=54.	=54.	=54.
2GG/	0r	2B-\	4dd\]
.	.	.	4cc\
2GG/	.	4A/	2b-\
.	.	4G/	.
1AA	.	1F	1a
=55	=55	=55	=55
0GG	0r	2r	2r
.	.	2d\	2b-\
.	.	2e\	2.g/
.	.	[2g\	.
.	.	.	4a/
=56.	=56.	=56.	=56.
0r	1r	4g\]	2b-\
.	.	4f\	.
.	.	2e\	1cc
.	1G	1d	.
.	.	.	2bni\
=57	=57	=57	=57
0r	1A	2r	1cc
.	.	2e\	.
.	[1A	2.c\	1cc
.	.	4d\	.
=58.	=58.	=58.	=58.
1r	1A]	2e\	1cc
.	.	1f	.
1C	1A	.	1cc
.	.	2e\	.
=59	=59	=59	=59
1D	2F/	1f	0a
.	2F/	.	.
1D	2F/	1f	.
.	2F/	.	.
=60.	=60.	=60.	=60.
1D	1D	1f	1r
1D	1r	1f	1d
=61	=61	=61	=61
2BB-/	0r	0d	2d/
2BB-/	.	.	2d/
2BB-/	.	.	1d
2BB-/	.	.	.
=62.	=62.	=62.	=62.
1GG	0r	1r	1g
1r	.	1G	1g
=63	=63	=63	=63
0r	1r	2G/	2.g/
.	.	2G/	.
.	.	.	4a/
.	1d	1G	2b-\
.	.	.	2b-\
=64.	=64.	=64.	=64.
0r	2c\	1c	[0cc
.	2c\	.	.
.	2.A/	1c	.
.	4G/	.	.
=65	=65	=65	=65
1r	2F/	2.c\	0cc]
.	4E/	.	.
.	4D/	4d\	.
1G	1C	2e\	.
.	.	2e\	.
=66.	=66.	=66.	=66.
2F\	2r	[0f	0r
2F\	2A/	.	.
2.D\	2B-\	.	.
.	[2d\	.	.
4C/	.	.	.
=67	=67	=67	=67
2BB-/	4d\]	0f]	1r
.	4c\	.	.
4AA/	2B-\	.	.
4GG/	.	.	.
1FF	1A	.	1a
=68.	=68.	=68.	=68.
2r	2r	0r	2b-\
2D\	2B-\	.	2.dd\
2E\	2.G/	.	.
.	.	.	4cc\
[2G\	.	.	4b-\
.	4A/	.	4a/
=69	=69	=69	=69
4G\]	2B-\	1r	1g
4F\	.	.	.
2E\	1c	.	.
1D	.	1d	2r
.	2Bni\	.	2d/
=70.	=70.	=70.	=70.
2r	1c	2e\	2g/
2E\	.	2.g\	2c/
2.C/	2c\	.	2.e/
.	.	4f\	.
.	2c\	4e\	.
4D\	.	4d\	4f/
=71	=71	=71	=71
2E\	1c	1c	2g/
1F	.	.	2.a/
.	1c	2r	.
.	.	.	4g/
2E\	.	2G/	2g/
=72.	=72.	=72.	=72.
1F	[0Al	2c\	1a
.	.	2F/	.
2F\	.	2.A/	1a
2F\	.	.	.
.	.	4B-\	.
=73	=73	=73	=73
1F	0A_	2c\	2a/
.	.	2.d\	2a/
1F	.	.	1a
.	.	4c\	.
.	.	2c\	.
=74.	=74.	=74.	=74.
[0Dl	0A_	1d	1a
.	.	1d	[1dd
=75	=75	=75	=75
0D_	0A_	2d\	2dd\]
.	.	2d\	4cc\
.	.	.	4b-\
.	.	1d	2a/
.	.	.	2g/
=76.	=76.	=76.	=76.
0D_	0A_	[0dl	1f
.	.	.	1f
=77	=77	=77	=77
0D]	0A]	0d]	0fl
!!LO:LB:i:g=z
=78||	=78||	=78||	=78||
*>B	*>B	*>B	*>B
*clefF4	*clefGv2	*clefGv2	*clefG2
*k[b-]	*k[b-]	*k[b-]	*k[b-]
*M2/1	*M2/1	*M2/1	*M2/1
*met(C2)	*met(C2)	*met(C2)	*met(C2)
!	!LO:TX:X=-40:Z=8:t=4-ex-1 canon at the lower 5th/upper 8ve/upper 4th (2/8/10 breves)	!	!
!!section: Qui tollis
!!!OMD: Qui tollis
0r	0A	0r	0r
=79.	=79.	=79.	=79.
0r	1A	0r	0r
.	1A	.	.
=80	=80	=80	=80
0D	2B-\	0r	0r
.	1B-	.	.
.	4A/	.	.
.	4G/	.	.
=81.	=81.	=81.	=81.
1D	2F/	0r	0r
.	2F/	.	.
1D	1B-	.	.
=82	=82	=82	=82
2E-i\	0G	0r	0r
1E-i	.	.	.
4D\	.	.	.
4C/	.	.	.
=83.	=83.	=83.	=83.
2BB-/	1G	0r	0r
2BB-/	.	.	.
1E-i	1G	.	.
=84	=84	=84	=84
0C	1A	0r	0r
.	2A/	.	.
.	[2G/	.	.
=85.	=85.	=85.	=85.
1C	4G/]	0r	0r
.	4F/	.	.
.	4E/	.	.
.	4D/	.	.
1C	1E	.	.
=86	=86	=86	=86
1D	2.D/	0r	0a
.	4E/	.	.
2D\	2F/	.	.
[2C/	2G/	.	.
=87.	=87.	=87.	=87.
4C/]	4A/	0r	1a
4BB-/	4G/	.	.
4AA/	4F#i/	.	.
4GG/	4E/	.	.
1AA	1F#i	.	1a
=88	=88	=88	=88
2.GG/	0G	0d	2b-\
.	.	.	1b-
4AA/	.	.	.
2BB-/	.	.	.
2C/	.	.	4a/
.	.	.	4g/
=89.	=89.	=89.	=89.
4D\	0r	1d	2f/
4C/	.	.	.
4BB-/	.	.	2f/
4AA/	.	.	.
1BB-	.	1d	1b-
=90	=90	=90	=90
0C	0r	2e-i\	0g
.	.	1e-i	.
.	.	4d\	.
.	.	4c\	.
=91.	=91.	=91.	=91.
0r	0r	2B-\	1g
.	.	2B-\	.
.	.	1e-i	1g
=92	=92	=92	=92
0r	0r	0c	1a
.	.	.	2a/
.	.	.	[2g/
=93.	=93.	=93.	=93.
0r	0r	1c	4g/]
.	.	.	4f/
.	.	.	4e/
.	.	.	4d/
.	.	1c	1e
=94	=94	=94	=94
0r	0r	1d	2.d/
.	.	.	4e/
.	.	2d\	2f/
.	.	[2c\	2g/
=95.	=95.	=95.	=95.
0r	0r	4c\]	4a/
.	.	4B-\	4g/
.	.	4A/	4f#i/
.	.	4G/	4e/
.	.	1A	1f#i
=96	=96	=96	=96
0r	1r	2.G/	0g
.	.	4A/	.
.	1G	2B-\	.
.	.	2c\	.
=97.	=97.	=97.	=97.
0r	1G	4d\	0r
.	.	4c\	.
.	.	4B-\	.
.	.	4A/	.
.	1G	1B-	.
=98	=98	=98	=98
1r	2A/	0c	0r
.	2A/	.	.
1C	[1c	.	.
=99.	=99.	=99.	=99.
1C	2c\]	0r	0r
.	4B-\	.	.
.	4A/	.	.
1C	2G/	.	.
.	2G/	.	.
=100	=100	=100	=100
2D\	1F	0r	0r
2D\	.	.	.
[1F	[1A	.	.
=101.	=101.	=101.	=101.
2F\]	2A/]	0r	0r
4E\	2A/	.	.
4D\	.	.	.
2C/	1A	.	.
2C/	.	.	.
=102	=102	=102	=102
1BB-	2r	0r	0r
.	1D	.	.
[1D	.	.	.
.	2D/	.	.
=103.	=103.	=103.	=103.
2D\]	1F	0r	0r
2D\	.	.	.
1D	1F	.	.
=104	=104	=104	=104
2r	1G	0r	1r
1GG	.	.	.
.	1G	.	1g
2GG/	.	.	.
=105.	=105.	=105.	=105.
1BB-	2.G/	0r	1g
.	4A/	.	.
1BB-	1B-	.	1g
=106	=106	=106	=106
1C	2A/	1r	2a/
.	2.c\	.	2a/
4C/	.	1c	[1cc
2.C/	4B-\	.	.
.	[2A/	.	.
=107.	=107.	=107.	=107.
2.C/	2A/]	1c	2cc\]
.	4G/	.	4b-\
4D\	4F/	.	4a/
1E-i	1G	1c	2g/
.	.	.	2g/
=108	=108	=108	=108
2D\	[0A	2d\	1f
2.F\	.	2d\	.
.	.	[1f	[1a
4E-i\	.	.	.
[2D\	.	.	.
=109.	=109.	=109.	=109.
2D\]	0A]	2f\]	2a/]
4C/	.	4e\	2a/
4BB-/	.	4d\	.
1C	.	2c\	1a
.	.	2c\	.
=110	=110	=110	=110
[0D	0r	1B-	2r
.	.	.	1d
.	.	[1d	.
.	.	.	2d/
=111.	=111.	=111.	=111.
0D]	0r	2d\]	1f
.	.	2d\	.
.	.	1d	1f
=112	=112	=112	=112
0r	0r	2r	1g
.	.	1G	.
.	.	.	1g
.	.	2G/	.
=113.	=113.	=113.	=113.
0r	0r	1B-	2.g/
.	.	.	4a/
.	.	1B-	1b-
=114	=114	=114	=114
0r	0r	1c	2a/
.	.	.	2.cc\
.	.	1c	.
.	.	.	4b-\
.	.	.	[2a/
=115.	=115.	=115.	=115.
0r	0r	2.c\	2a/]
.	.	.	4g/
.	.	4d\	4f/
.	.	1e-i	1g
=116	=116	=116	=116
0r	1D	2d\	[0a
.	.	2.f\	.
.	2D/	.	.
.	.	4e-i\	.
.	2D/	[2d\	.
=117.	=117.	=117.	=117.
0r	2.F/	2d\]	0a]
.	.	4c\	.
.	4G/	4B-\	.
.	2A/	1c	.
.	2A/	.	.
=118	=118	=118	=118
1GG	2.B-\	[0d	0r
.	4A/	.	.
2GG/	2G/	.	.
2GG/	4F/	.	.
.	4E/	.	.
=119.	=119.	=119.	=119.
2.BB-/	2D/	0d]	0r
.	2G/	.	.
4C/	.	.	.
2D\	4F/	.	.
.	4E/	.	.
2D\	2F/	.	.
=120	=120	=120	=120
2.E-i\	1G	0r	0r
4D\	.	.	.
2C/	1c	.	.
4BB-/	.	.	.
4AA/	.	.	.
=121.	=121.	=121.	=121.
2GG/	2B-\	0r	0r
2C/	2A/	.	.
4BB-/	1B-	.	.
4AA/	.	.	.
2BB-/	.	.	.
=122	=122	=122	=122
1C	2A/	0r	0r
.	2c\	.	.
1F	2d\	.	.
.	[2A/	.	.
=123.	=123.	=123.	=123.
2E\	2A/]	0r	0r
2D\	2.d\	.	.
1E	.	.	.
.	4c#i\	.	.
.	2c#i\	.	.
=124	=124	=124	=124
2D\	0d	0r	1d
2F\	.	.	.
2G\	.	.	2d/
[2D\	.	.	2d/
=125.	=125.	=125.	=125.
2D\]	0r	0r	2.f/
2.G\	.	.	.
.	.	.	4g/
.	.	.	2a/
4F#i\	.	.	.
2F#i\	.	.	2a/
=126	=126	=126	=126
0G	0r	1G	2.b-\
.	.	.	4a/
.	.	2G/	2g/
.	.	2G/	4f/
.	.	.	4e/
=127.	=127.	=127.	=127.
0r	0r	2.B-\	2d/
.	.	.	2g/
.	.	4c\	.
.	.	2d\	4f/
.	.	.	4e/
.	.	2d\	2f/
=128	=128	=128	=128
0r	0r	2.e-i\	1g
.	.	4d\	.
.	.	2c\	1cc
.	.	4B-\	.
.	.	4A/	.
=129.	=129.	=129.	=129.
0r	0r	2G/	2b-\
.	.	2c\	2a/
.	.	4B-\	1b-
.	.	4A/	.
.	.	2B-\	.
=130	=130	=130	=130
0r	0r	1c	2a/
.	.	.	2cc\
.	.	1f	2dd\
.	.	.	[2a/
=131.	=131.	=131.	=131.
0r	1r	2e\	2a/]
.	.	2d\	2.dd\
.	1A	1e	.
.	.	.	4cc#i\
.	.	.	2cc#i\
=132	=132	=132	=132
0r	1B-	2d\	0dd
.	.	2f\	.
.	2B-\	2g\	.
.	[2B-\	[2d\	.
=133.	=133.	=133.	=133.
1r	2B-\]	2d\]	0r
.	4A/	2.g\	.
.	4G/	.	.
1D	2A/	.	.
.	.	4f#i\	.
.	2B-\	2f#i\	.
=134	=134	=134	=134
1E-i	2G/	0g	0r
.	1G	.	.
2E-i\	.	.	.
[2E-i\	2G/	.	.
=135.	=135.	=135.	=135.
2E-\]	2G/	0r	0r
4D\	4F/	.	.
4C/	4E/	.	.
2D\	2D/	.	.
2E-i\	2G/	.	.
=136	=136	=136	=136
2C/	2A/	0r	0r
1C	1A	.	.
2C/	4G/	.	.
.	4F/	.	.
=137.	=137.	=137.	=137.
2C/	4E/	0r	0r
.	4C/	.	.
4BB-/	2F/	.	.
4AA/	.	.	.
2GG/	2E/	.	.
2C/	2E/	.	.
=138	=138	=138	=138
2D\	2D/	0r	0r
1D	2D/	.	.
.	2.F/	.	.
4C/	.	.	.
4BB-/	4G/	.	.
=139.	=139.	=139.	=139.
4AA/	2A/	0r	1r
4FF/	.	.	.
2BB-/	2.G/	.	.
2AA/	.	.	1a
.	4F#i/	.	.
2AA/	2F#i/	.	.
=140	=140	=140	=140
2GG/	2G/	0r	1b-
2GG/	1G	.	.
2.BB-/	.	.	2b-\
.	4F/	.	[2b-\
4C/	4E/	.	.
=141.	=141.	=141.	=141.
2D\	2D/	1r	2b-\]
2.C/	2E/	.	4a/
.	.	.	4g/
.	2F/	1d	2a/
4BB-/	.	.	.
2BB-/	2G/	.	2b-\
=142	=142	=142	=142
2C/	0C	1e	2g/
1C	.	.	1g
.	.	2e\	.
4BB-/	.	[2e\	2g/
4AA/	.	.	.
=143.	=143.	=143.	=143.
2GG/	1r	2e\]	2g/
2AA/	.	4d\	4f/
.	.	4c\	4e/
2BB-/	2r	2d\	2d/
2C/	2E/	2e\	2g/
=144	=144	=144	=144
0FF	2.F/	2c\	2a/
.	.	1c	1a
.	4G/	.	.
.	[1A	.	.
.	.	2c\	4g/
.	.	.	4f/
=145.	=145.	=145.	=145.
1r	2A/]	2c\	4e/
.	.	.	4c/
.	2F/	4B-\	2f/
.	.	4A/	.
2r	2G/	2G/	2e/
2AA/	2A/	2c\	2e/
=146	=146	=146	=146
2.BB-/	2F/	2d\	2d/
.	2G/	1d	2d/
4C/	.	.	.
[1D	1D	.	2.f/
.	.	4c\	.
.	.	4B-\	4g/
=147.	=147.	=147.	=147.
2D\]	1D	4A/	2a/
.	.	4F/	.
2BB-/	.	2B-\	2.g/
2C/	2r	2A/	.
.	.	.	4f#i/
2D\	[2D/	2A/	2f#i/
=148	=148	=148	=148
2BB-/	2D/]	2G/	[0gl
2C/	2E/	2G/	.
1GG	2D/	2.B-\	.
.	[2G/	.	.
.	.	4c\	.
=149.	=149.	=149.	=149.
[0GGl	2G/]	[0dl	0g_
.	4F/	.	.
.	4E/	.	.
.	1D	.	.
=150	=150	=150	=150
0GG]	0Gl	0d]	0g]
==	==	==	==
*-	*-	*-	*-
!!!RDF**kern: l=long note in original notation
!!!RDF**kern: i=editorial accidental
!!!ENC:	Chris Gage 03-28-2013
!!!END:	2013/07/28/
!!!EED:	Jesse Rodin
!!!EEV:	2013/08/02/
!!!ONB:	Translated from MusicXML and edited on 2013/08/02/ by Craig Sapp
!!muse2ps: T^@{OPR}^u^@{ONM}{. }@{OTL}^C^@{COM}^i2I150v85,85,85,150Q16c120
